imgs/twittter.svg

<svg width="48" height="40" viewBox="0 0 48 40" fill="none" xmlns="http://www.w3.org/2000/svg">
<path d="M48 5.11334C46.234 5.89656 44.3361 6.42602 42.3439 6.66401C44.3773 5.44528 45.9387 3.51534 46.6739 1.21573C44.7713 2.34428 42.6637 3.16384 40.4205 3.60553C38.6241 1.69153 36.0648 0.495605 33.2324 0.495605C27.7936 0.495605 23.3844 4.90484 23.3844 10.3432C23.3844 11.1151 23.4715 11.8666 23.6393 12.5874C15.4549 12.1767 8.19863 8.25618 3.34155 2.29816C2.49387 3.75265 2.0083 5.44425 2.0083 7.24902C2.0083 10.6655 3.74688 13.6797 6.38923 15.4458C4.77496 15.3947 3.25651 14.9516 1.92873 14.214C1.92804 14.2552 1.92789 14.2963 1.92789 14.3378C1.92789 19.1092 5.32241 23.0895 9.82749 23.9941C9.00107 24.219 8.13108 24.3394 7.23299 24.3394C6.59841 24.3394 5.9815 24.2777 5.38019 24.1628C6.63338 28.0752 10.2702 30.9224 14.5795 31.002C11.2091 33.6431 6.96294 35.2174 2.34916 35.2174C1.55427 35.2174 0.77036 35.1708 0 35.0799C4.35814 37.874 9.53447 39.5042 15.0957 39.5042C33.2095 39.5042 43.1146 24.4985 43.1146 11.4851C43.1146 11.0581 43.105 10.6334 43.0862 10.2111C45.0101 8.82267 46.6798 7.08819 48 5.11334Z" fill="#69ACE0"/>
</svg>

<svg width="48" height="40" fill="none" xmlns="http://www.w3.org/2000/svg"><path d="M48 5.113a19.686 19.686 0 01-5.656 1.551 9.876 9.876 0 004.33-5.448 19.716 19.716 0 01-6.254 2.39 9.835 9.835 0 00-7.188-3.11c-5.438 0-9.848 4.409-9.848 9.847 0 .772.087 1.524.255 2.244-8.184-.41-15.44-4.33-20.297-10.289A9.801 9.801 0 002.008 7.25a9.844 9.844 0 004.381 8.197 9.808 9.808 0 01-4.46-1.232l-.001.124c0 4.771 3.394 8.752 7.9 9.656a9.869 9.869 0 01-4.448.169 9.858 9.858 0 009.2 6.839 19.76 19.76 0 01-12.23 4.215c-.796 0-1.58-.046-2.35-.137a27.874 27.874 0 0015.096 4.424c18.113 0 28.019-15.005 28.019-28.019 0-.427-.01-.852-.029-1.274A20.013 20.013 0 0048 5.113z" fill="#69ACE0"/></svg>
